assets/images/dice/1.svg

<?xml version="1.0" encoding="UTF-8" standalone="no"?>
<!DOCTYPE svg PUBLIC "-//W3C//DTD SVG 1.1//EN" "http://www.w3.org/Graphics/SVG/1.1/DTD/svg11.dtd">
<svg width="100%" height="100%" viewBox="0 0 512 512" version="1.1" xmlns="http://www.w3.org/2000/svg" xmlns:xlink="http://www.w3.org/1999/xlink" xml:space="preserve" xmlns:serif="http://www.serif.com/" style="fill-rule:evenodd;clip-rule:evenodd;stroke-linejoin:round;stroke-miterlimit:2;">
    <g>
        <path d="M302.87,255.5C302.87,281.486 281.486,302.87 255.5,302.87C229.514,302.87 208.13,281.486 208.13,255.5C208.13,229.514 229.514,208.13 255.5,208.13C281.486,208.13 302.87,229.514 302.87,255.5ZM484.5,428.02C484.5,459.004 459.004,484.5 428.02,484.5L84.02,484.5C84.007,484.5 83.993,484.5 83.98,484.5C52.996,484.5 27.5,459.004 27.5,428.02L27.5,84.02C27.5,84.007 27.5,83.993 27.5,83.98C27.5,52.996 52.996,27.5 83.98,27.5L427.98,27.5C427.993,27.5 428.007,27.5 428.02,27.5C459.004,27.5 484.5,52.996 484.5,83.98L484.5,428.02ZM464.5,84.02C464.5,84.007 464.5,83.993 464.5,83.98C464.5,63.968 448.032,47.5 428.02,47.5L84.02,47.5C84.007,47.5 83.993,47.5 83.98,47.5C63.968,47.5 47.5,63.968 47.5,83.98L47.5,427.98C47.5,427.993 47.5,428.007 47.5,428.02C47.5,448.032 63.968,464.5 83.98,464.5L427.98,464.5C427.993,464.5 428.007,464.5 428.02,464.5C448.032,464.5 464.5,448.032 464.5,428.02L464.5,84.02Z" style="fill:rgb(160,160,162);fill-rule:nonzero;"/>
    </g>
</svg>

<svg xmlns="http://www.w3.org/2000/svg" viewBox="0 0 512 512" style="height: 512px; width: 512px;"><path d="M0 0h512v512H0z" fill="#333" fill-opacity="1"></path><g class="" transform="translate(0,0)" style=""><path d="M302.87 255.5a47.37 47.37 0 1 1-47.37-47.37 47.37 47.37 0 0 1 47.37 47.37zM484.5 428.02a56.48 56.48 0 0 1-56.48 56.48h-344a56.48 56.48 0 0 1-56.52-56.48v-344A56.48 56.48 0 0 1 83.98 27.5h344a56.48 56.48 0 0 1 56.52 56.48zm-20-344a36.48 36.48 0 0 0-36.48-36.52h-344A36.48 36.48 0 0 0 47.5 83.98v344a36.48 36.48 0 0 0 36.48 36.52h344a36.48 36.48 0 0 0 36.52-36.48z" fill="#A0A0A2" fill-opacity="1"></path></g></svg>
